Sources/FrostedUI/Resources/Icons.xcassets/discord24.imageset/discord-24.svg

<svg width="24" height="24" viewBox="0 0 24 24" fill="none" xmlns="http://www.w3.org/2000/svg" data-fui-icon="true">
  <path
    d="M9.55273 3.25488C9.68672 3.4958 9.81185 3.74152 9.93066 3.99023C11.3032 3.8276 12.6899 3.82772 14.0625 3.99023C14.1814 3.74129 14.3082 3.49605 14.4424 3.25488L14.7002 2.79102L15.2227 2.87988C16.6511 3.12283 18.047 3.52883 19.3818 4.09082L19.9492 4.3418L20.1387 4.42871L20.2559 4.60059C22.8363 8.39351 24.1281 12.695 23.6533 17.6455L23.6211 17.9766L23.3535 18.1758C21.6019 19.4776 19.6398 20.4664 17.5537 21.0986L17.0488 21.252L16.7344 20.8281C16.258 20.1856 15.836 19.5032 15.4746 18.7891L15.458 18.7559C14.3317 19.0483 13.1702 19.1992 12 19.1992C10.8281 19.1992 9.66489 19.0481 8.53711 18.7549L8.52148 18.7871C8.1598 19.5014 7.73838 20.184 7.2627 20.8271L6.94824 21.2529L6.44141 21.0986C4.35748 20.4639 2.39752 19.4743 0.646484 18.1738L0.37793 17.9746L0.34668 17.6426C-0.0578196 13.3756 0.75693 9.03421 3.73242 4.6084L3.85059 4.43262L4.04199 4.34473C5.5481 3.65216 7.13772 3.15977 8.77051 2.87988L9.29492 2.79004L9.55273 3.25488ZM15.5029 4.45801C15.3977 4.66909 15.2986 4.88338 15.2061 5.10059L14.9785 5.63574L14.4033 5.54883C12.8083 5.30723 11.1859 5.3072 9.59082 5.54883L9.0166 5.63574L8.78906 5.10156C8.69645 4.88415 8.59656 4.66938 8.49121 4.45801C7.24239 4.71215 6.02497 5.10378 4.85938 5.62305C2.26409 9.56254 1.51622 13.3859 1.81348 17.167C3.2102 18.1634 4.74409 18.9478 6.36621 19.4971C6.5163 19.2752 6.6571 19.0473 6.79297 18.8164C6.38243 18.6292 5.98032 18.423 5.5918 18.1924L4.61328 17.6113L5.5332 16.9414C5.68144 16.8333 5.82781 16.7202 5.97656 16.6055L6.34082 16.3252L6.75586 16.5215C8.3966 17.2971 10.1872 17.6992 12 17.6992C13.8128 17.6992 15.6034 17.2971 17.2441 16.5215L17.6738 16.3184L18.04 16.6191C18.179 16.7331 18.315 16.8376 18.4473 16.9277L19.4209 17.5908L18.4082 18.1924C18.0185 18.4237 17.615 18.6306 17.2031 18.8184C17.3389 19.049 17.4798 19.2766 17.6299 19.498C19.2542 18.9504 20.7898 18.1657 22.1875 17.168C22.5327 12.8079 21.3928 9.01607 19.1289 5.61914C17.9653 5.10065 16.75 4.71029 15.5029 4.45801ZM8.3418 10.6221C9.45443 10.6221 10.3442 11.6213 10.3252 12.8389C10.3059 14.0563 9.45121 15.0458 8.3457 15.0459C7.2609 15.0459 6.36448 14.0564 6.36426 12.8389C6.36426 11.6214 7.22932 10.6223 8.3418 10.6221ZM15.6543 10.6221C16.7687 10.6221 17.6519 11.6213 17.6328 12.8389C17.6136 14.0564 16.7599 15.0459 15.6543 15.0459C14.5679 15.0457 13.675 14.0562 13.6748 12.8389C13.6748 11.6214 14.5401 10.6223 15.6543 10.6221Z"
    fill="currentColor"
  />
</svg>

<svg xmlns="http://www.w3.org/2000/svg" width="24" height="24" fill="none" data-fui-icon="true" viewBox="0 0 24 24"><path fill="currentColor" d="M9.553 3.255q.2.362.378.735a17.6 17.6 0 0 1 4.132 0q.177-.374.38-.735l.257-.464.523.089c1.428.243 2.824.649 4.159 1.21l.567.252.19.087.117.172c2.58 3.793 3.872 8.094 3.397 13.045l-.032.33-.267.2a18.9 18.9 0 0 1-5.8 2.923l-.505.153-.315-.424a14 14 0 0 1-1.26-2.039l-.016-.033a13.8 13.8 0 0 1-3.458.443c-1.172 0-2.335-.15-3.463-.444l-.016.032a14 14 0 0 1-1.258 2.04l-.315.426-.507-.154a19 19 0 0 1-5.795-2.925l-.268-.2-.031-.331c-.405-4.267.41-8.609 3.385-13.035l.119-.175.191-.088A19 19 0 0 1 8.771 2.88l.524-.09zm5.95 1.203q-.158.316-.297.643l-.227.535-.576-.087a16 16 0 0 0-4.812 0l-.574.087-.228-.534a12 12 0 0 0-.298-.644A17.5 17.5 0 0 0 4.86 5.623c-2.595 3.94-3.343 7.763-3.046 11.544 1.397.996 2.931 1.78 4.553 2.33q.224-.334.427-.68-.617-.28-1.201-.625l-.979-.58.92-.67q.221-.164.444-.337l.364-.28.415.197a12.27 12.27 0 0 0 10.488 0l.43-.204.366.301a6 6 0 0 0 .407.309l.974.663-1.013.601q-.586.347-1.205.626.203.348.427.68a17.4 17.4 0 0 0 4.558-2.33c.345-4.36-.795-8.152-3.06-11.549a17.4 17.4 0 0 0-3.625-1.161m-7.161 6.164c1.112 0 2.002 1 1.983 2.217-.02 1.217-.874 2.207-1.98 2.207-1.084 0-1.98-.99-1.98-2.207 0-1.218.864-2.217 1.977-2.217m7.312 0c1.115 0 1.998 1 1.979 2.217-.02 1.217-.873 2.207-1.979 2.207-1.086 0-1.979-.99-1.98-2.207 0-1.218.866-2.217 1.98-2.217"/></svg>
